X: 10106
T: STARBUCK'S POLKA
C: Bob McQuillen 15 April 93
B: Bob's Note Book 10 #106
%R: polka, march
Z: 2020 John Chambers <jc:trillian.mit.edu>
M: C
L: 1/8
K: G
D2 \
| G3D B,2D2 | G3D B,2D2 | G2AB A2F2 | G6 Bc | d2B2 c2A2 | B2d2 g2b2 | a3g f2e2 | d6 D2 |
| G3D B,2D2 | G3D B,2D2 | G2AB A2F2 | G6 Bc | d2B2 c2A2 | B2d2 g3e | d2cB A2A2 | G6 ||
|| FE \
| D2E2 F2FG | A2B2 c2AB | c2B2 A2G2 | A6 FE | D2E2 F2FG | A2B2 c2cd | e3d c2B2 | A6 BA |
| G2G2 G2AB | A2A2 A2GA | B2G2 B2d2 | g6 d2 | e3d e2f2 | g2fe d2c2 | B2GA B2A2 | G6 |]
%%begintext align
%% One of the great fringe
%% benefits of going out to Seattle to see Frank and Dina
%% and Zora and Kitty Blade is getting a cup of that
%% wonderful Starbuck's coffee. Guiness fans will dispute
%% me, I know, but I still think that nothing beats a Starbuck's
%% Latt\'e. It is _so good_!
%%endtext

%%sep 1 1 500

%%sep 1 1 500

